X:1
T:The Old Oaken Bucket
T:The Old Oaken Bucket
T:Smith, 1896
T:Samuel Woodworth, 1817 & Russell Conwell,1896
T:Public Domain Courtesy of the Cyber Hymnal™
T:Public Domain Courtesy of the Cyber Hymnal™
C:Smith, 1896
Z:Public Domain
Z:Courtesy of the Cyber Hymnal™
%%score ( 1 2 ) ( 3 4 )
L:1/8
Q:1/4=83
M:3/8
K:G
V:1 treble 
V:2 treble 
V:3 bass 
V:4 bass 
V:1
 D | [DB]>[DA][DG] | [GB]>[GA]G | [FA]>G[FA] | [GB][DG][DG] | [EG]>[DF][CE] | D[DG][GB] | %7
w: 1.~How|dear to this|heart are the|scenes of my|child- hood, When|fond re- col-|lec- tion pre-|
w: 2.~The|moss co- vered|buck- et I|hailed as a|trea- sure, For|oft- en, at|noon, when re-|
w: 3.~How|sweet from the|green, moss- y|rim to re-|ceive it As|poised on the|curb, it in-|
w: 4.~But|dear- er than|foun- tain or|well of our|home- stead, The|wa- ter of|life which our|
 [FA]>G[FA] | G2 D | [DB]>[DA][DG] | [GB]>[GA]G | [FA]>G[FA] | [GB][DG][DG] | [EG]>[DF][CE] | %14
w: sents them to|view. The|or- chard, the|mea- dow, the|deep tan- gled|wild- wood, And|ev- ery loved|
w: turned from the|field I|found it the|source of an|ex- qui- site|plea- sure, The|pur- est and|
w: clined to my|lip; No|full, blush- ing|gob- let could|tempt me to|leave it, Tho’|filled with the|
w: Sav- ior shall|bring, But|bright- er and|cool- er than|old oak- en|buck- et Are|draughts of sal-|
 D[DG][GB] | [FA]>G[FA] | G2 [B,D] | [B,D][B,D][B,D] | ([CE][B,D])[B,D] | [B,D][B,D][B,D] | %20
w: spot which my|in- fan- cy|knew. The|wide spread- ing|pond, * the|mill that stood|
w: sweet- est that|na- ture can|yield; How|ar- dent I|seized~it * with|hands that were|
w: nec- tar that|ser- a- phim|sip. And|now, far re-|moved~from * the|loved si- tu-|
w: va- tion from|Hea- ven’s clear|spring; The|wide stretch- ing~val-|leys * in|col- ors so|
 [B,G][B,D][B,D] | [B,D][B,D][B,D] | [GB]>[FA]G | [DF][FA][^CE] | D2 [B,D] | [B,D][B,D][B,D] | %26
w: by it; The|bridge and the|rock where the|cat- a- ract|fell. The|cot of my|
w: glow- ing, And|quick to the|white- peb- bled|bot- tom it|fell; Then|soon, with the|
w: a- tion, The|tear or re-|gret will in-|tru- sive- ly|swell, As|fan- cy re-|
w: fade- less, Where|trees are all|death- less and|flowers ev- er|bloom; The|dear- ly be-|
 ([CE][B,D])[B,D] | [B,D][B,D][B,D] | [B,G][B,D][B,D] | [B,D][B,D][B,D] | [GB]>[FA]G | %31
w: father, * the|dair- y house|nigh it, And|e’en the rude|buck- et that|
w: emblem * of|truth o- ver-|flow- ing, And|drip- ping with|cool- ness, it|
w: verts~to * my|fa- ther’s plan-|ta- tion, And|sighs for the|buck- et which|
w: lovèd * who|stands at the|por- tal, Ex-|pect- ant- ly|wait- ing to|
 [DF][FA][^CE] | D2 ||"^Refrain" D | [DB]>[DA][DG] | [GB]>[GA]G | [FA]>G[FA] | [GB][DG][DG] | %38
w: hung in the|well.||||||
w: rose from the|well.|1,2,3~The|old oak- en|buck- et, the|ir- on- bound|buck- et, The|
w: hung in the|well.||||||
w: wel- come us|home,|4.~’Tis|bet- ter, far|bet- ter, than|all earth can|give us, To|
 [EG]>[DF][CE] | D[DG][GB] | [FA]>G[FA] | G2 |] %42
w: ||||
w: moss cov- ered|buck- et that|hung in the|well.|
w: ||||
w: drink with the|loved ones at|foun- tains of|God.|
V:2
 D | x3 | x2 G | x3/2 G/ x | x3 | x3 | D x2 | x3/2 G/ x | G2 D | x3 | x2 G | x3/2 G/ x | x3 | x3 | %14
 D x2 | x3/2 G/ x | G2 x | x3 | x3 | x3 | x3 | x3 | x2 G | x3 | D2 x | x3 | x3 | x3 | x3 | x3 | %30
 x2 G | x3 | D2 || D | x3 | x2 G | x3/2 G/ x | x3 | x3 | D x2 | x3/2 G/ x | G2 |] %42
V:3
 [G,B,] | [G,D]>[G,C][G,B,] | [G,D]>[G,C][G,B,] | [D,C]>[D,B,][D,C] | [G,D][G,B,][B,,D] | %5
 [C,C]>[C,C][C,G,] | [B,,G,][G,,B,][G,D] | [D,C]>[D,B,][D,C] | [G,,B,]2 [G,B,] | %9
 [G,D]>[G,C][G,B,] | [G,D]>[G,C][G,B,] | [D,C]>[D,B,][D,C] | [G,D][G,B,][B,,D] | %13
 [C,C]>[C,C][C,G,] | [B,,G,][G,,B,][G,D] | [D,C]>[D,B,][D,C] | [G,,B,]2 [G,,G,] | %17
 [G,,G,][G,,G,][G,,G,] | ([G,,G,][G,,G,])[G,,G,] | [G,,G,][G,,G,][G,,G,] | [G,,B,][G,,G,][G,,G,] | %21
 [G,,G,][G,,G,][G,,G,] | [G,D]>[A,C]B, | A,A,[A,,G,] | [D,F,]2 [G,,G,] | [G,,G,][G,,G,][G,,G,] | %26
 ([G,,G,][G,,G,])[G,,G,] | [G,,G,][G,,G,][G,,G,] | [G,,B,][G,,G,][G,,G,] | [G,,G,][G,,G,][G,,G,] | %30
 [G,D]>[A,C]B, | A,A,[A,,G,] | [D,F,]2 || [G,B,] | [G,D]>[G,C][G,B,] | [G,D]>[G,C][G,B,] | %36
 [D,C]>[D,B,][D,C] | [G,D][G,B,][B,,D] | [C,C]>[C,C][C,G,] | [B,,G,][G,,B,][G,D] | %40
 [D,C]>[D,B,][D,C] | [G,,B,]2 |] %42
V:4
 x | x3 | x3 | x3 | x3 | x3 | x3 | x3 | x3 | x3 | x3 | x3 | x3 | x3 | x3 | x3 | x3 | x3 | x3 | x3 | %20
 x3 | x3 | x2 B, | A,A, x | x3 | x3 | x3 | x3 | x3 | x3 | x2 B, | A,A, x | x2 || x | x3 | x3 | x3 | %37
 x3 | x3 | x3 | x3 | x2 |] %42

